X: 25786
T: Mason's Apron, The
R: reel
M: 4/4
K: Gmajor
|:ge|dB~B2 AGEG|DEGA B2AG|EA~A2 BA~A2|(3B^cd ef gage|
dB~B2 AGEG|DEGA BGAB|~c3d edeg|GDBA G2:|
|:dc|BG~G2 eGdG|~G2dG eGdG|ce~e2 ge~e2|degb aged|
Bd~d2 ed~d2|GABG AGEG|~c3d edeg|GDBA G2:|

